svg/view_agenda_outline.svg

<svg xmlns="http://www.w3.org/2000/svg" viewBox="0 0 24 24"><path d="M21 13H3a1 1 0 0 0-1 1v6a1 1 0 0 0 1 1h18a1 1 0 0 0 1-1v-6a1 1 0 0 0-1-1m-1 6H4v-4h16m1-12H3a1 1 0 0 0-1 1v6a1 1 0 0 0 1 1h18a1 1 0 0 0 1-1V4a1 1 0 0 0-1-1m-1 6H4V5h16Z"/></svg>

<?xml version="1.0" encoding="UTF-8"?><!DOCTYPE svg PUBLIC "-//W3C//DTD SVG 1.1//EN" "http://www.w3.org/Graphics/SVG/1.1/DTD/svg11.dtd"><svg xmlns="http://www.w3.org/2000/svg" xmlns:xlink="http://www.w3.org/1999/xlink" version="1.1" id="mdi-view-agenda-outline" width="24" height="24" viewBox="0 0 24 24"><path d="M21 13H3A1 1 0 0 0 2 14V20A1 1 0 0 0 3 21H21A1 1 0 0 0 22 20V14A1 1 0 0 0 21 13M20 19H4V15H20M21 3H3A1 1 0 0 0 2 4V10A1 1 0 0 0 3 11H21A1 1 0 0 0 22 10V4A1 1 0 0 0 21 3M20 9H4V5H20Z" /></svg>
